X: 1291
T: An Gadaighe Grána
R: waltz
M: 3/4
K: Fmajor
f/e/|dc A2 c/A/G/A/|FF F>G Af/e/|dc A2 c/A/G/A/|FF F3:|
F/G/|AA f2 ef|dd d>c AA/B/|cc c2 Ac|de f3 f/e/|
dc A2 c/A/G/A/|FF F>G Af/e/|dc A2 c/A/G/A/|FF F3||

